X:1
T:Title
%%score { ( 1 4 ) | ( 2 3 ) }
L:1/8
Q:1/4=100
M:4/4
K:E
V:1 treble nm="Grand Piano"
V:4 treble 
V:2 bass 
V:3 bass 
V:1
 B>B ^A>B [Ge]2 [GB]2 | G>G B>G [DA]4 | [DF]>[DG] [DA][DB] [Dd]2 [Dc]2 | [EB]>[Ec] [DB][DA] G4 | %4
w: C.~Austin~Miles * * * * *||||
 B>B ^A>B [Ge]2 [GB]2 | G>G BG [EA]2 [E^A]2 | [EB]>[EB] [Ec][EB] [DB][DA][EG][A,DF] | %7
w: |||
[M:3/4] [G,E]6 |[M:1/4] z2 |[M:4/4] z [EA][EA][EA] [EA]edc | B6 z2 | %11
w: ||||
 [DG][DF][DF][EG] [FA][Fd][Fc][B,FA] | [B,EG]6 z2 | z [EA][EA][EA] [EA]edc |[M:9/8] .B6 z3 | %15
w: ||||
[M:4/4] [EG][EB][EB][Ec] [DB][DA][EG][DF] |[M:3/4] [B,E]6 |] %17
w: ||
V:2
 [E,G,E]>[E,G,E] [E,=G,E]>[E,^G,E] [E,B,]2 [E,E]2 | [E,B,E]>[E,B,E] [G,B,E]>[E,B,E] [B,,B,]4 | %2
 [B,,B,]>[B,,B,] [B,,B,][B,,B,] [B,,F,]2 [B,,F,]2 | [B,,G,]>[B,,G,] [B,,F,][B,,B,] [E,B,E]4 | %4
 [E,G,E]>[E,G,E] [E,=G,E]>[E,^G,E] [E,B,]2 [E,E]2 | %5
 [E,B,E]>[E,B,E] [E,G,E][E,B,E] [C,A,]2 [^B,,=G,]2 | %6
 [B,,G,]>[B,,G,] [B,,G,][B,,G,] [B,,F,][B,,B,][B,,B,]B,, |[M:3/4] E,6 |[M:1/4][K:treble] fB | %9
[M:4/4] c6[K:bass] z2 | z [E,E][G,E][B,E] [E,E]2 [E,E][E,B,] | %11
 [B,,B,][B,,B,][B,,B,][B,,B,] [B,,B,][B,,B,][D,B,]D, | E,6[K:treble] eB | c6[K:bass] z2 | %14
[M:9/8] z [E,G,][E,G,] [E,G,] [^B,,=G,]2- [B,,G,][B,,G,][B,,G,] | %15
[M:4/4] [B,,G,][B,,G,][B,,G,][B,,G,] [B,,F,][B,,F,][B,,B,][B,,A,] |[M:3/4] [E,G,]6 |] %17
V:3
 x8 | x8 | x8 | x8 | x8 | x8 | x8 |[M:3/4] x6 |[M:1/4][K:treble] x2 | %9
[M:4/4] z[K:bass] A,E,C, .A,,2 z2 | x8 | x8 | x6[K:treble] x2 | z[K:bass] A,E,C, .A,,2 z2 | %14
[M:9/8] x9 |[M:4/4] x8 |[M:3/4] x6 |] %17
V:4
 x8 | x8 | x8 | x8 | x8 | x8 | x8 |[M:3/4] x6 |[M:1/4] x2 |[M:4/4] x8 | z GGG G2 [GB][EG] | x8 | %12
 x8 | x8 |[M:9/8] z EE E [Ee]2- [Ee]E[EF] |[M:4/4] x8 |[M:3/4] x6 |] %17

